X:1
T:Niagara, LM
T:Niagara, LM
T:Robert Jackson (1842-1914)
T:Public Domain Courtesy of the Cyber Hymnal™
C:Robert Jackson (1842-1914)
Z:Public Domain
Z:Courtesy of the Cyber Hymnal™
%%score ( 1 2 ) ( 3 4 )
L:1/8
Q:1/4=95
M:3/4
K:A
V:1 treble 
V:2 treble 
V:3 bass 
V:4 bass 
V:1
 EC E | A2 [CA]2 [FB][EB] | [Ec]3 [EA] [EG][EA] | [Ed][Ec] [FB]2 [FB]2 | [EB]3 E CE | %5
 [EA]2 [EB]2 [Ec][Ad] | [Ee]3 [Ed] [Ec][EB] | [Ec][DA] [EA]2 [EG]2 | [EA]3 |] %9
V:2
 EC E | A2 x4 | x6 | x6 | x3 E CE | x6 | x6 | x6 | x3 |] %9
V:3
 E,C, E, | A,2 [F,A,]2 [D,A,][D,F,] | [A,,A,]3 [C,E] [B,,D][A,,C] | %3
 [G,,B,][A,,A,] [D,A,]2 [^D,A,]2 | [E,G,]3 E, C,E, | [C,A,]2 [E,G,]2 A,[F,A,] | %6
 [C,A,]3 [E,G,] [F,A,][G,B,] | A,[F,A,] [E,C]2 [E,B,]2 | [A,,C]3 |] %9
V:4
 E,C, E, | A,2 x4 | x6 | x6 | x3 E, C,E, | x4 A, x | x6 | A, x5 | x3 |] %9

